X: 28
T: No_123_Quail_Dance_Song_(b).krn
N: Derived from No_123_Quail_Dance_Song_(b).krn
%%abc-version 2.0
%%abcx-abcm2ps-target-version 5.9.1 (29 Sep 2008)
%%abc-creator hum2abc beta
%%abcx-conversion-date 2019/03/15 08:38:45
%%humdrum-veritas 401601414
%%humdrum-veritas-data 4197523303
%%linebreak <none>
%%barnumbers 0
L: 1/8
M: 2/4
K: F clef=bass
[K:clef=bass][M:2/4]CG, A, z [I:setbarnb 2]| 
(CA,) (CA,) ||  
[M:3/4]F,B, A,F, F, z | 
F,2B, z/ F,/F,2 :|]  
[M:7/8]F,2B,A,F,F,2 :|]  
[M:7/8]z F,-F,B,(A,F,)F, [I:setbarnb 7]:|]  
[M:7/8]z F,B,(A,F,)F, z :|]  
[M:7/8]F,2B,A,F,F,2 :|]  



